!!!OTL-incipit: ACH HAMELN DU WUNDERSCHOENE STADT
!!!ARE: Europa, Mitteleuropa, Deutschland, Westfalen
!!!SCT: Z0021
!!!TXL: @@DE
!!!YEM: Copyright 1995, estate of Helmut Schaffrath.
**kern	**text
*ICvox	*
*M2/4	*
*k[]	*
*C:	*
!LO:TX:a:t=Weſtphäliſch.	!
{8g	Ach
=1	=1
(8cc	Ha-
8b)	.
8cc	-meln,
8dd	ach
=2	=2
(8cc	Ha-
8b)	.
8cc}	-meln,
{8dd	du
=3	=3
8ee	wun-
8ff	-der
8dd	ſchö-
8ee	-ne
=4	=4
4cc	Stadt!
8r}	.
{8dd	da-
=5	=5
8ee	-rin-
8dd	-nen
8ee	liegt
8ff	be-
=6	=6
4gg	-gra-
8ff}	-ben
{8ee	ſo
=7	=7
(8dd	man-
8cc)	.
8dd	-cher
8ee	Sol-
=8	=8
4dd	-dat,
8r}	.
{8g	Ach
=9	=9
(8cc	Ha-
8b)	.
8cc	-meln,
8dd	ach
=10	=10
(8cc	Ha-
8b)	.
8cc}	-meln,
{8dd	du
=11	=11
8ee	wun-
8ff	-der
8dd	ſchö-
8ee	-ne
=12	=12
4cc	Stadt!
8r}	.
=||	=||
{8dd	da-
=13	=13
8ee	-rin-
8dd	-nen
8ee	liegt
8ff	be-
=14	=14
4gg	-gra-
8ff}	-ben
{8ee	ſo
=15	=15
(8dd	man-
8cc)	.
8dd	-cher
8ee	Sol-
=16	=16
4dd	-dat,
8r}	.
{16eeL	da-
16ffJ	.
=17	=17
8gg	-rin-
8gg	-nen
8gg	liegt
8gg	ſo
=18	=18
4.aa}	man-
{8gg	-cher
=19	=19
(8ff	bra-
8ee)	.
8ff	-ve
8dd	Sol-
=20	=20
4.gg}	-dat,
{8ff	der
=21	=21
(8ee	Va-
8dd)	.
8ee	-ter
8gg	und
=22	=22
(8gg	Mut-
8ff)	.
8ff}	-ter
{8ee	ver-
=23	=23
8ddL	-laſ-
8ccJ	.
8ddL	-ſen
8eeJ	.
=24	=24
4cc	hat.
8r}	.
==:|;;	==:|;;
!!!AGN: Sagen - Lied, Romanze
!!!ONB: ESAC (Essen Associative Code) Database: ZUCCAL
!!!AMT: simple duple
!!!AIN: vox
!!!EED: Helmut Schaffrath
!!!EEV: 1.0
!!!GTL: I. Ernste Romanzen und Sagen.
!!!URL-scan: https://www.digitale-sammlungen.de/de/view/bsb11160571?page=47
!!!ENC: Anna Maria Matuszewska
!!!EEV: 2025/01/23
*-	*-
